packages/dnb-ui-lib/assets/icons/without_bankid_medium.svg

<svg width="24" height="24" viewBox="0 0 24 24" fill="none" xmlns="http://www.w3.org/2000/svg">
<path fill-rule="evenodd" clip-rule="evenodd" d="M4.25 0.75C2.73122 0.75 1.5 1.98122 1.5 3.5V20.5C1.5 22.0188 2.73122 23.25 4.25 23.25H13C14.5188 23.25 15.75 22.0188 15.75 20.5V15C15.75 14.5858 15.4142 14.25 15 14.25C14.5858 14.25 14.25 14.5858 14.25 15V20.5C14.25 21.1904 13.6904 21.75 13 21.75H4.25C3.55964 21.75 3 21.1904 3 20.5V3.5C3 2.80964 3.55964 2.25 4.25 2.25H13C13.6904 2.25 14.25 2.80964 14.25 3.5V5.25C14.25 5.66421 14.5858 6 15 6C15.4142 6 15.75 5.66421 15.75 5.25V3.5C15.75 1.98122 14.5188 0.75 13 0.75H4.25ZM8.625 19.3125C9.14223 19.3125 9.5625 18.8934 9.5625 18.375C9.5625 17.8566 9.14223 17.4375 8.625 17.4375C8.10777 17.4375 7.6875 17.8566 7.6875 18.375C7.6875 18.8934 8.10777 19.3125 8.625 19.3125ZM9 10.125C9 10.7463 8.49632 11.25 7.875 11.25C7.25368 11.25 6.75 10.7463 6.75 10.125C6.75 9.50368 7.25368 9 7.875 9C8.49632 9 9 9.50368 9 10.125ZM12.375 11.25C12.9963 11.25 13.5 10.7463 13.5 10.125C13.5 9.50368 12.9963 9 12.375 9C11.7537 9 11.25 9.50368 11.25 10.125C11.25 10.7463 11.7537 11.25 12.375 11.25ZM18 10.125C18 10.7463 17.4963 11.25 16.875 11.25C16.2537 11.25 15.75 10.7463 15.75 10.125C15.75 9.50368 16.2537 9 16.875 9C17.4963 9 18 9.50368 18 10.125ZM21.375 11.25C21.9963 11.25 22.5 10.7463 22.5 10.125C22.5 9.50368 21.9963 9 21.375 9C20.7537 9 20.25 9.50368 20.25 10.125C20.25 10.7463 20.7537 11.25 21.375 11.25Z" fill="#333333"/>
</svg>

<svg width="24" height="24" viewBox="0 0 24 24" fill="none" xmlns="http://www.w3.org/2000/svg"><path fill-rule="evenodd" clip-rule="evenodd" d="M4.25.75A2.75 2.75 0 001.5 3.5v17a2.75 2.75 0 002.75 2.75H13a2.75 2.75 0 002.75-2.75V15a.75.75 0 00-1.5 0v5.5c0 .69-.56 1.25-1.25 1.25H4.25c-.69 0-1.25-.56-1.25-1.25v-17c0-.69.56-1.25 1.25-1.25H13c.69 0 1.25.56 1.25 1.25v1.75a.75.75 0 001.5 0V3.5A2.75 2.75 0 0013 .75H4.25zm4.375 18.563a.937.937 0 100-1.875.937.937 0 000 1.875zM9 10.124a1.125 1.125 0 11-2.25 0 1.125 1.125 0 012.25 0zm3.375 1.125a1.125 1.125 0 100-2.25 1.125 1.125 0 000 2.25zM18 10.125a1.125 1.125 0 11-2.25 0 1.125 1.125 0 012.25 0zm3.375 1.125a1.125 1.125 0 100-2.25 1.125 1.125 0 000 2.25z" fill="#333"/></svg>
